X: 1187
T: Scent of the Bog (A79)
N: page A79
N: heptatonic
R: hornpipe
M: 4/4
L: 1/8
K: G
(3gfe|"G"d>G Bd e>d (3gfe|d>B G>B d>g e>B|"C"(3cec A>c "G"(3BdB G>B|"Am"(3ABA (3GFE D2 (3gfe|
"G"d>G Bd e>d (3gfe|d>B G>B d>g f>g|"C"(3ege c>e d>g f>a|"G"g2 g>f g2::
ga|"G"(3bag (3agf g>B f>G|g>B f>B e>B d2|"C"e>f g>a (3bag (3agf|(3gfe f>d e>f g>a|
"G"(3bag (3agf g>B f>B|g>B f>B e>B d2|"C"(3efg c>e d>g f>a|"G"g2 g>f g2:|
